Obsidian/actions/16s/mic-ready.svg

<svg height="16" viewBox="0 0 16 16" width="16" xmlns="http://www.w3.org/2000/svg"><path d="m8 0c-1.6621 0-3 1.3381-3 3v5.0019531c0 1.6619 1.3379 2.9980469 3 2.9980469s3-1.3362469 3-2.9980469v-5.0019531c0-1.6619-1.3379-3-3-3zm-6 7.0039062v.9980469c.00001 2.9651999 2.168 5.4276499 5 5.9062499v2.091797h2v-2.091797c2.832-.47866 5-2.94115 5-5.9062499v-.9980469h-2v.9980469c0 2.2330999-1.7666 3.9980469-4 3.9980469s-4-1.764947-4-3.9980469v-.9980469z" fill="#bebebe" opacity=".3"/></svg>

<svg xmlns="http://www.w3.org/2000/svg" width="16" height="16" viewBox="0 0 16 16">
 <defs>
  <style id="current-color-scheme" type="text/css">
   .ColorScheme-Text { color:#bebebe; } .ColorScheme-Highlight { color:#4285f4; }
  </style>
 </defs>
 <path style="fill:currentColor;opacity:0.3" class="ColorScheme-Text" d="M 8 0 C 6.3379 0 5 1.3381 5 3 L 5 8.0019531 C 5 9.6638531 6.3379 11 8 11 C 9.6621 11 11 9.6637531 11 8.0019531 L 11 3 C 11 1.3381 9.6621 0 8 0 z M 2 7.0039062 L 2 8.0019531 C 2.00001 10.967153 4.168 13.429603 7 13.908203 L 7 16 L 9 16 L 9 13.908203 C 11.832 13.429543 14 10.967053 14 8.0019531 L 14 7.0039062 L 12 7.0039062 L 12 8.0019531 C 12 10.235053 10.2334 12 8 12 C 5.7666 12 4 10.235053 4 8.0019531 L 4 7.0039062 L 2 7.0039062 z"/>
</svg>
